X:19
T:Pipe on the Hob, The
R:jig
E:11
I:speed 335
M:6/8
K:ADor
AB|c3 edc|edc BAG|~A3 ~g3|eaa ged|\
c3 edc|ed^c deg|age dBe|~A3 A:|*
ef|~g3 geg|age dBe|~A3 ~g3|eaa gef|\
g3 geg|age deg|age dBe|~A3 A2:|*
B|c3 dcd|ecA AGE|c3 dcd|ecA A2B|\
cBc dcd|ede gab|age dBe|~A3 A2:|**
<end>
<start>
